public/assets/treehouse_green_logo.svg

<svg width="180" height="180" viewBox="0 0 180 180" fill="none" xmlns="http://www.w3.org/2000/svg">
<rect width="180" height="180" fill="#1AA873"/>
<path d="M125.068 89.3672C127.318 89.3672 129.006 89.9648 130.131 91.1602C131.326 92.2852 131.924 93.9727 131.924 96.2227C131.924 98.0508 131.537 101.496 130.764 106.559C130.061 110.848 129.498 114.926 129.076 118.793C128.654 122.59 128.443 126.844 128.443 131.555C128.443 134.227 127.881 136.16 126.756 137.355C125.701 138.48 123.943 139.043 121.482 139.043C119.162 139.043 117.475 138.445 116.42 137.25C115.365 136.055 114.838 134.262 114.838 131.871C114.838 129.059 115.33 124.418 116.314 117.949C117.158 112.324 117.58 108.738 117.58 107.191C117.58 106.066 117.193 105.504 116.42 105.504C115.506 105.504 114.205 106.699 112.518 109.09C110.83 111.41 109.143 114.504 107.455 118.371C105.768 122.238 104.396 126.316 103.342 130.605C102.568 133.91 101.654 136.16 100.6 137.355C99.6152 138.48 98.0332 139.043 95.8535 139.043C93.6738 139.043 92.0566 138.27 91.002 136.723C90.0176 135.105 89.3496 132.645 88.998 129.34C88.6465 126.035 88.4707 121.184 88.4707 114.785C88.4707 103.957 89.5605 92.6719 91.7402 80.9297C93.9902 69.1875 97.2598 59.3438 101.549 51.3984C105.908 43.3828 111.111 39.375 117.158 39.375C120.393 39.375 122.994 40.7813 124.963 43.5938C127.002 46.3359 128.021 49.9219 128.021 54.3516C128.021 61.4531 125.947 68.8359 121.799 76.5C117.65 84.0938 110.9 92.9883 101.549 103.184C101.338 106.84 101.232 110.602 101.232 114.469C103.553 108.492 106.119 103.641 108.932 99.9141C111.814 96.1172 114.627 93.4102 117.369 91.793C120.182 90.1758 122.748 89.3672 125.068 89.3672ZM114.943 49.8164C113.678 49.8164 112.271 51.6445 110.725 55.3008C109.178 58.8867 107.666 63.7734 106.189 69.9609C104.783 76.0781 103.623 82.7578 102.709 90C107.068 84.8672 110.654 79.2773 113.467 73.2305C116.35 67.1836 117.791 61.6992 117.791 56.7773C117.791 54.5273 117.545 52.8047 117.053 51.6094C116.561 50.4141 115.857 49.8164 114.943 49.8164Z" fill="white"/>
<path d="M93.3672 114.996C94.2812 114.996 94.9844 115.418 95.4765 116.262C96.039 117.105 96.3203 118.266 96.3203 119.742C96.3203 122.555 95.6523 124.734 94.3164 126.281C91.293 130.008 87.9883 133.066 84.4023 135.457C80.8164 137.848 76.7031 139.043 72.0625 139.043C57.7187 139.043 50.5469 128.953 50.5469 108.773C50.5469 105.68 50.6523 102.551 50.8633 99.3867H46.75C44.6406 99.3867 43.1992 99 42.4258 98.2266C41.7227 97.4531 41.3711 96.2227 41.3711 94.5352C41.3711 90.5977 42.9531 88.6289 46.1172 88.6289H52.1289C53.3242 80.8945 55.1523 73.8281 57.6133 67.4297C60.0742 61.0312 63.0273 55.9336 66.4726 52.1367C69.9883 48.3398 73.75 46.4414 77.7578 46.4414C80.7109 46.4414 83.0312 47.7422 84.7187 50.3437C86.4062 52.9453 87.25 56.2148 87.25 60.1523C87.25 71.0508 82.6797 80.543 73.5391 88.6289H85.3515C86.4765 88.6289 87.2851 88.875 87.7773 89.3672C88.2695 89.8594 88.5156 90.7734 88.5156 92.1094C88.5156 96.9609 84.543 99.3867 76.5976 99.3867H63.7305C63.5898 102.902 63.5195 105.645 63.5195 107.613C63.5195 114.926 64.3633 120.059 66.0508 123.012C67.8086 125.965 70.5508 127.441 74.2773 127.441C77.3008 127.441 79.9726 126.527 82.293 124.699C84.6133 122.871 87.3555 120.129 90.5195 116.473C91.3633 115.488 92.3125 114.996 93.3672 114.996ZM74.9101 56.5664C73.8555 56.5664 72.6602 57.9023 71.3242 60.5742C70.0586 63.1758 68.8281 66.832 67.6328 71.543C66.5078 76.1836 65.5586 81.3516 64.7851 87.0469C68.9336 83.4609 72.0273 79.4531 74.0664 75.0234C76.1758 70.5234 77.2305 66.4453 77.2305 62.7891C77.2305 58.6406 76.457 56.5664 74.9101 56.5664Z" fill="white"/>
</svg>

<svg xmlns="http://www.w3.org/2000/svg" width="180" height="180" fill="none"><path fill="#1AA873" d="M0 0h180v180H0z"/><path fill="#fff" d="M125.068 89.367q3.375 0 5.063 1.793 1.793 1.688 1.793 5.063 0 2.742-1.16 10.336a230 230 0 0 0-1.688 12.234q-.633 5.695-.633 12.762 0 4.008-1.687 5.8-1.583 1.688-5.274 1.688-3.48 0-5.062-1.793t-1.582-5.379q0-4.218 1.476-13.922 1.266-8.438 1.266-10.758 0-1.687-1.16-1.687-1.371 0-3.902 3.586-2.531 3.48-5.063 9.281a76 76 0 0 0-4.113 12.234q-1.161 4.958-2.742 6.75-1.478 1.688-4.746 1.688-3.27 0-4.852-2.32-1.476-2.426-2.004-7.383t-.527-14.555q0-16.242 3.27-33.855 3.375-17.614 9.808-29.532 6.538-12.023 15.609-12.023 4.852 0 7.805 4.219 3.058 4.113 3.058 10.758 0 10.652-6.222 22.148-6.223 11.39-20.25 26.684a196 196 0 0 0-.317 11.285q3.481-8.965 7.7-14.555 4.324-5.695 8.437-8.121 4.22-2.426 7.699-2.426m-10.125-39.55q-1.898 0-4.218 5.484-2.32 5.378-4.536 14.66-2.109 9.176-3.48 20.039a74 74 0 0 0 10.758-16.77q4.324-9.069 4.324-16.453 0-3.374-.738-5.168-.738-1.793-2.11-1.793"/><path fill="#fff" d="M93.367 114.996q1.37 0 2.11 1.266.843 1.265.843 3.48 0 4.219-2.004 6.539-4.535 5.59-9.914 9.176t-12.34 3.586q-21.515 0-21.515-30.27 0-4.64.316-9.386H46.75q-3.164 0-4.324-1.16-1.055-1.16-1.055-3.692 0-5.906 4.746-5.906h6.012q1.793-11.601 5.484-21.2 3.691-9.597 8.86-15.292 5.273-5.696 11.285-5.696 4.43 0 6.96 3.903 2.532 3.901 2.532 9.808 0 16.348-13.71 28.477h11.81q1.688 0 2.426.738t.739 2.742q0 7.278-11.918 7.278H63.73q-.212 5.273-.212 8.226 0 10.97 2.532 15.399 2.637 4.43 8.226 4.429 4.536 0 8.016-2.742t8.226-8.226q1.266-1.477 2.848-1.477M74.91 56.566q-1.582 0-3.586 4.008-1.898 3.903-3.691 10.969-1.687 6.96-2.848 15.504 6.223-5.379 9.281-12.024 3.165-6.75 3.165-12.234 0-6.223-2.32-6.223"/></svg>
